dist/img/common/icons/learn-more.svg

<svg xmlns="http://www.w3.org/2000/svg" width="49" height="48" viewBox="0 0 49 48" fill="none">
    <path d="M35.5999 20L35.5999 13M35.5999 13L28.5999 13M35.5999 13L22.7666 25.8333" stroke="white" stroke-width="2" stroke-linecap="round" stroke-linejoin="round"/>
    <path d="M25.1001 15.3333H20.6001C17.2864 15.3333 14.6001 18.0195 14.6001 21.3333V27.9999C14.6001 31.3136 17.2864 33.9999 20.6001 33.9999H27.2668C30.5805 33.9999 33.2668 31.3136 33.2668 27.9999V23.4999" stroke="white" stroke-width="2" stroke-linecap="round" stroke-linejoin="round"/>
</svg>

<svg xmlns="http://www.w3.org/2000/svg" width="49" height="48" fill="none"><path d="M35.6 20v-7m0 0h-7m7 0L22.767 25.833m2.333-10.5h-4.5a6 6 0 00-6 6V28a6 6 0 006 6h6.667a6 6 0 006-6v-4.5" stroke="#fff" stroke-width="2" stroke-linecap="round" stroke-linejoin="round"/></svg>
